!!!COM:	Martini, Johannes
!!!CDT:	~1440///-~1497//
!!!OPR:	Missa Dio te salvi Gotterello
!!!ONM:	5
!!!OTL:	Agnus Dei
!!!AGN:	Mass; Agnus Dei
!!!SCT:	Mar1004e
!!!SCA:	Mar1004e
!!!voices:	4
!!!voices-OPR:	4
**kern	**kern	**kern	**kern
*staff4	*staff3	*staff2	*staff1
*Ivox	*Ivox	*Ivox	*Ivox
*I"Bassus	*I"Tenor	*I"Contra	*I"Superius
*I'B	*I'T	*I'C	*I'S
*>[A,B,C]	*>[A,B,C]	*>[A,B,C]	*>[A,B,C]
*>A	*>A	*>A	*>A
*clefF4	*clefGv2	*clefGv2	*clefG2
*k[]	*k[]	*k[]	*k[]
*M2/1	*M2/1	*M2/1	*M2/1
*met(C)	*met(C)	*met(C)	*met(C)
=1-	=1-	=1-	=1-
!!section: Agnus Dei I
!!!OMD: Agnus Dei I
0r	0r	2.A/	1a
.	.	4B\	.
.	.	2c\	2g/
.	.	2c\	2e/
=2	=2	=2	=2
0r	1r	2d\	1f
.	.	4c\	.
.	.	4B\	.
.	1A	1c	1f
=3	=3	=3	=3
0r	2G/	1B	2r
.	2E/	.	2g/
.	1F	2A/	2f/
.	.	[2d\	[2a/
=4	=4	=4	=4
0r	1E	2d\]	2a/]
.	.	2c\	2g/
.	2D/	2d\	2f/
.	[2A/	4c\	4e/
.	.	4d\	4d/
=5	=5	=5	=5
0r	2A/]	2e\	2c/
.	2G/	2r	2.e/
.	2F/	2A/	.
.	.	.	4d/
.	2D/	2A/	[2d/
=6	=6	=6	=6
1r	1E	2G/	2d/]
.	.	2E/	2c#i/
1D	1r	1F	1d
=7	=7	=7	=7
2C/	0r	2E/	0r
2AA/	.	1A	.
1BB	.	.	.
.	.	2G#i/	.
=8	=8	=8	=8
2AA/	0r	1A	0r
1D	.	.	.
.	.	2r	.
2C/	.	2e\	.
=9	=9	=9	=9
1D	0r	2f\	0r
.	.	4e\	.
.	.	4d\	.
2F\	.	2c\	.
2G\	.	2B\	.
=10	=10	=10	=10
1A	0r	2A/	0r
.	.	2.e\	.
2G\	.	.	.
.	.	4d\	.
2F\	.	[2d\	.
=11	=11	=11	=11
1E	1r	2d\]	0r
.	.	2c#i\	.
1D	2r	1d	.
.	2A/	.	.
=12	=12	=12	=12
2r	2B\	0r	0r
2AA/	2A/	.	.
2BB/	2d\	.	.
2AA/	2c\	.	.
=13	=13	=13	=13
2D\	2A/	0r	0r
2C/	1c	.	.
1E	.	.	.
.	[2B\	.	.
=14	=14	=14	=14
2D\	2B\]	0r	0r
2C/	1A	.	.
1BB	.	.	.
.	2G#i/	.	.
=15	=15	=15	=15
[0AA	1A	1.c	2e/
.	.	.	2f/
.	2E/	.	2e/
.	2F/	2d\	[2a/
=16	=16	=16	=16
1AA]	2E/	1e	4a/]
.	.	.	4b\
.	2.A/	.	4cc\
.	.	.	4dd\
2r	.	2f\	2b\
.	4B\	.	.
2AA/	4c\	2e\	2a/
.	4d\	.	.
=17	=17	=17	=17
2BB/	2B\	2d\	2.dd\
2C/	2A/	2e\	.
.	.	.	4cc\
2D\	2d\	2f\	4b\
.	.	.	4a/
2AA/	2c\	4e\	[2a/
.	.	4f\	.
=18	=18	=18	=18
1E	1B	4g\	2a/]
.	.	4f\	.
.	.	4e\	2g#i/
.	.	4d\	.
1AA	1A	1c	1a
=19	=19	=19	=19
*M3/1	*M3/1	*M3/1	*M3/1
*met(3)	*met(3)	*met(3)	*met(3)
!!primary-mensuration: met(C.)
!! tempo is menCDot
0.r	1A	2.e\	0.r
.	.	4d\	.
.	2A/	2c\	.
.	1G	1B	.
.	2E/	[2c\	.
=20	=20	=20	=20
0.r	2F/	2c\]	1a
.	2.D/	1d	.
.	.	.	2a/
.	4C/	.	.
.	2.E/	1.B	1g
.	4F/	.	.
.	2G/	.	2e/
=21	=21	=21	=21
1A	2A/	0.r	2f/
.	1F	.	2.d/
2A\	.	.	.
.	.	.	4c/
1G	1E	.	1e
2E\	2r	.	[2c/
=22	=22	=22	=22
2F\	0.r	1a	2c/]
1D	.	.	1d
.	.	2a\	.
2.E\	.	1g	1B
4F\	.	.	.
2G\	.	2e\	2r
=23	=23	=23	=23
2A\	1.r	2f\	1a
1F	.	1d	.
.	.	.	2a/
1.E	1G	2.e\	2.g/
.	.	4d\	4f/
.	2G/	4c\	4e/
.	.	4B\	4d/
=24	=24	=24	=24
1AA	1A	1c	2f/
.	.	.	2.e/
2C/	2G/	2c\	.
.	.	.	4d/
2D\	2F/	2B\	1d
1AA	1E	1A	.
.	.	.	2c#i/
=25	=25	=25	=25
1D	1D	1A	0d
1F	1D	1B	.
1G	1C	1c	1e
=26	=26	=26	=26
1F	1D	0A	1.f
1D	1F	.	.
.	.	.	2e/
1GG	1G	1B	1d
=27	=27	=27	=27
0.AAl	0.El	0.Al	0.cl
!!LO:LB:i:g=z
=28||	=28||	=28||	=28||
*>B	*>B	*>B	*>B
*clefF4	*clefGv2	*clefGv2	*clefG2
*k[]	*k[]	*k[]	*k[]
*M2/1	*M2/1	*M2/1	*M2/1
*met(C)	*met(C)	*met(C)	*met(C)
!!section: Agnus Dei II
!!!OMD: Agnus Dei II
0r	0r	0r	1.a
.	.	.	2g/
=29	=29	=29	=29
0r	1.A	0r	1f
.	.	.	1e
.	2G/	.	.
=30	=30	=30	=30
0r	1F	0r	2r
.	.	.	2d/
.	1E	.	2e/
.	.	.	[2g/
=31	=31	=31	=31
0r	2r	0r	2g/]
.	2D/	.	2f/
.	2E/	.	2g/
.	[2G/	.	2e/
=32	=32	=32	=32
0r	2G/]	0r	1d
.	2F/	.	.
.	2G/	.	2r
.	2E/	.	2g/
=33	=33	=33	=33
0r	1D	0r	2f/
.	.	.	1b-i
.	2G/	.	.
.	2F/	.	[2a/
=34	=34	=34	=34
0r	1B-i	0r	2a/]
.	.	.	2g/
.	1A	.	2f/
.	.	.	[2e/
=35	=35	=35	=35
0r	2G/	0r	4e/]
.	.	.	4d/
.	2F/	.	1d
.	1E	.	.
.	.	.	2c#i/
=36	=36	=36	=36
0r	0D	0r	1d
.	.	.	2r
.	.	.	[2dd\
=37	=37	=37	=37
0r	1r	0r	2dd\]
.	.	.	2cc\
.	[1d	.	2a/
.	.	.	[2b\
=38	=38	=38	=38
0r	1d]	0r	4b\]
.	.	.	4a/
.	.	.	4g/
.	.	.	4f/
.	2c\	.	2e/
.	2A/	.	2f/
=39	=39	=39	=39
0r	4B\	0r	2.g/
.	4A/	.	.
.	4G/	.	.
.	4F/	.	4a/
.	2.E/	.	2b\
.	.	.	2cc\
.	4F/	.	.
=40	=40	=40	=40
0r	2G/	0r	2b\
.	2A/	.	2a/
.	2G/	.	1b
.	[2d\	.	.
=41	=41	=41	=41
0r	4d\]	0r	2.a/
.	4c\	.	.
.	2A/	.	.
.	.	.	4g/
.	1B	.	2e/
.	.	.	[2g/
=42	=42	=42	=42
0r	1A	0r	2g/]
.	.	.	2f#i/
.	1G	.	1g
=43	=43	=43	=43
1D	0r	1r	0r
2C/	.	2r	.
2D\	.	[2d\	.
=44	=44	=44	=44
2BB/	0r	2d\]	0r
2AA/	.	2c\	.
2GG/	.	2d\	.
[2D\	.	2B\	.
=45	=45	=45	=45
2D\]	0r	2A/	0r
2E\	.	2G/	.
2F\	.	1d	.
2G\	.	.	.
=46	=46	=46	=46
2E\	0r	2e\	0r
2D\	.	2f\	.
2r	.	2g\	.
2C/	.	2e\	.
=47	=47	=47	=47
2D\	0r	2d\	0r
2F\	.	2r	.
2E\	.	2c\	.
2D\	.	2d\	.
=48	=48	=48	=48
1A	0r	2f\	0r
.	.	1e	.
2G\	.	.	.
2F\	.	[2d\	.
=49	=49	=49	=49
1E	0r	2d\]	1r
.	.	2c#i\	.
1D	.	1d	2r
.	.	.	2a/
=50	=50	=50	=50
0r	1r	0r	2cc\
.	.	.	2b\
.	2A/	.	1a
.	2c\	.	.
=51	=51	=51	=51
0r	2B\	0r	2g/
.	2A/	.	1a
.	1d	.	.
.	.	.	4g/
.	.	.	4f/
=52	=52	=52	=52
2r	2.c\	0r	2e/
2AA/	.	.	1f
.	4B\	.	.
2BB/	1G	.	.
2C/	.	.	2e/
=53	=53	=53	=53
2D\	2F/	0r	2d/
2AA/	1A	.	2c/
1BB	.	.	1d
.	2G/	.	.
=54	=54	=54	=54
0AA	2A/	0r	2.c/
.	2.c\	.	.
.	.	.	4d/
.	.	.	2e/
.	4B\	.	.
.	2A/	.	[2f/
=55	=55	=55	=55
1C	1G	1r	2f/]
.	.	.	2e/
1D	1F	2r	1f
.	.	2A/	.
=56	=56	=56	=56
2r	0r	2B\	0r
2AA/	.	2c\	.
2BB/	.	2d\	.
2C/	.	4c\	.
.	.	4B\	.
=57	=57	=57	=57
2.D\	0r	2A/	0r
.	.	2d\	.
4C/	.	.	.
2AA/	.	2e\	.
2D\	.	2f\	.
=58	=58	=58	=58
2E\	0r	2g\	2r
2F\	.	4f\	2a/
.	.	4e\	.
2G\	.	2d\	2b\
4F\	.	2A/	2cc\
4E\	.	.	.
=59	=59	=59	=59
1D	0r	2B\	2dd\
.	.	2c\	4cc\
.	.	.	4b\
2r	.	2d\	2a/
2C/	.	4c\	2e/
.	.	4B\	.
=60	=60	=60	=60
2D\	1r	2A/	2f/
2E\	.	2r	2g/
2F\	2D/	1r	2a/
2D\	2F/	.	4g/
.	.	.	4f/
=61	=61	=61	=61
2E\	2G/	0r	2e/
1D	2A/	.	1f
.	2F/	.	.
2GG/	2G/	.	[2d/
=62	=62	=62	=62
1AA	1E	1r	2d/]
.	.	.	2c#i/
1Al	1Dl	1Al	1dl
!!LO:LB:i:g=z
=63||	=63||	=63||	=63||
*>C	*>C	*>C	*>C
*clefF4	*clefGv2	*clefGv2	*clefG2
*k[]	*k[]	*k[]	*k[]
*M2/1	*M2/1	*M2/1	*M2/1
*met(C)	*met(C)	*met(C)	*met(C)
!!section: Agnus Dei III
!!!OMD: Agnus Dei III
0F	0D	1.d	[0a
.	.	4c\	.
.	.	4B\	.
=64	=64	=64	=64
0D	0F	2A/	0a]
.	.	2.d\	.
.	.	4e\	.
.	.	2f\	.
=65	=65	=65	=65
0E	0G	4e\	0g
.	.	4d\	.
.	.	4c#i\	.
.	.	4B\	.
.	.	1c#i	.
=66	=66	=66	=66
1D	1A	1.d	1f
1G	1G	.	[1b-i
.	.	2e\	.
=67	=67	=67	=67
1F	0c	1f	2b-\]
.	.	.	2a/
1A	.	[1e	[1a
=68	=68	=68	=68
0E	0B	2e\]	2a/]
.	.	4d\	2g/
.	.	4c\	.
.	.	1B	2f/
.	.	.	2e/
=69	=69	=69	=69
1AA	0A	1c	1e
[1D	.	2A/	[1f
.	.	[2F/	.
=70	=70	=70	=70
1D]	1A	2F/]	1f]
.	.	4E/	.
.	.	4D/	.
1AA	[1A	1C	1e
=71	=71	=71	=71
0BB	2A/]	1D	0d
.	2G/	.	.
.	2.G/	2r	.
.	.	2D/	.
.	4F/	.	.
=72	=72	=72	=72
1AA	1A	2E/	1c
.	.	1A	.
1D	1F	.	1d
.	.	2B\	.
=73	=73	=73	=73
1C	1G	1.c	1e
1AA	1A	.	[1f
.	.	[2A/	.
=74	=74	=74	=74
0BB	0D	2A/]	2f/]
.	.	2G/	2e/
.	.	2G/	[1d
.	.	2F/	.
=75	=75	=75	=75
0AA	0E	1A	2d/]
.	.	.	4c#i/
.	.	.	4B/
.	.	1r	1c#i
=76	=76	=76	=76
0D	0D	1A	1.d
.	.	2B\	.
.	.	2A/	2e/
=77	=77	=77	=77
0r	0r	1d	1f
.	.	2e\	2g/
.	.	2d\	[2a/
=78	=78	=78	=78
0r	0r	2f\	2a/]
.	.	2g\	2b\
.	.	2a\	2a/
.	.	2f\	[2dd\
=79	=79	=79	=79
0r	0r	1e	2dd\]
.	.	.	2cc\
.	.	1d	2dd\
.	.	.	2b\
=80	=80	=80	=80
0r	0r	1f	2a/
.	.	.	2.cc\
.	.	1e	.
.	.	.	4b\
.	.	.	2g/
=81	=81	=81	=81
0r	0r	2d\	2f/
.	.	2f\	2.a/
.	.	2e\	.
.	.	.	4g/
.	.	[2g\	[2b-i\
=82	=82	=82	=82
0r	0r	4g\]	4b-\]
.	.	4f\	4a/
.	.	4e\	4g/
.	.	4d\	4f/
.	.	1c#i	1e
=83	=83	=83	=83
0r	0r	2d\	2d/
.	.	2.A/	2.f/
.	.	4G/	4e/
.	.	[2B\	[2g/
=84	=84	=84	=84
0r	0r	4B\]	4g/]
.	.	4A/	4f/
.	.	4G/	4e/
.	.	4F/	4d/
.	.	1E	1c#i
=85	=85	=85	=85
*M3/1	*M3/1	*M3/1	*M3/1
*met(3)	*met(3)	*met(3)	*met(3)
!! Tempo is for men3
1D	0.r	0D	0d
1F	.	.	.
1G	.	1r	1d
=86	=86	=86	=86
1.A	0.r	0F	0c
2G\	.	.	.
1E	.	1G	1c
=87	=87	=87	=87
1.F	0.r	1.A	1.d
2E\	.	2G/	2c/
2D\	.	2F/	2B/
2C/	.	2E/	2A/
=88	=88	=88	=88
1D	0d	1F	0A
0BB	.	1.D	.
.	1d	.	1G#i
.	.	2C/	.
=89	=89	=89	=89
0.AA	0c	0E	0A
.	1c	1e	1r
=90	=90	=90	=90
0D	1.d	0f	0a
.	2c\	.	.
1D	2B\	1d	1b
.	2A/	.	.
=91	=91	=91	=91
1C	0A	1e	1cc
1D	.	1f	1dd
1E	1G	1g	1b
=92	=92	=92	=92
0.AA	0.A	0e	0cc
.	.	1c	1a
=93	=93	=93	=93
0D	0.r	1d	1.a
.	.	1A	.
.	.	.	2g/
1D	.	1B	1f
=94	=94	=94	=94
0C	0.r	0c	1g
.	.	.	0e
1C	.	1A	.
=95	=95	=95	=95
1.D	0d	1.A	0f
2C/	.	2F/	.
1BB	1d	1G	1d
=96	=96	=96	=96
0.AA	0c	1.A	0e
.	.	2G/	.
.	1c	1E	1e
=97	=97	=97	=97
0D	1.d	1D	1.f
.	.	1F	.
.	2c\	.	2e/
1GG	1B	1G	1d
=98	=98	=98	=98
0AA	0.A	0E	0c
1D	.	1r	1f
=99	=99	=99	=99
1.C	0c	0.e	1g
.	.	.	1.a
2D\	.	.	.
1E	1B	.	.
.	.	.	2g/
=100	=100	=100	=100
1F	1A	0c	0f
0C	0G	.	.
.	.	1c	1e
=101	=101	=101	=101
0D	0F	1A	1f
.	.	1d	1r
1E	1r	2.c\	1g
.	.	4B\	.
=102	=102	=102	=102
0D	0F	1d	1.a
.	.	1A	.
.	.	.	2g/
1D	1F	1B	1f
=103	=103	=103	=103
1C	1.G	1c	1e
1BB	.	0d	1d
.	2A/	.	.
1GG	1B-i	.	1g
=104	=104	=104	=104
1D	0A	1d	1f
1AA	.	0c	1.e
1C	1G	.	.
.	.	.	2d/
=105	=105	=105	=105
1D	1F	1B	1.d
0AA	0E	0A	.
.	.	.	4c#i/
.	.	.	4B/
.	.	.	1c#i
=106	=106	=106	=106
0.Dl	0.Dl	0.Al	0.dl
==	==	==	==
*-	*-	*-	*-
!!!RDF**kern: l=long note in original notation
!!!RDF**kern: i=editorial accidental
!!!ENC:	Chris Gage 01-27-2014
!!!END:	2015/03/07/
!!!EED:	Jesse Rodin
!!!EEV:	2015/03/09/
!!!ONB:	Translated from MusicXML and edited on 2015/03/09/ by Craig Sapp
!!muse2ps: T^@{OPR}^u^@{ONM}{. }@{OTL}^C^@{COM}^i2I150v85,85,85,150Q16
